www/assets/icons/oil_barrel.svg

<svg xmlns="http://www.w3.org/2000/svg" width="24" height="24" viewBox="0 0 24 24" fill='currentColor'><path d="M20 13c.55 0 1-.45 1-1s-.45-1-1-1h-1V5h1c.55 0 1-.45 1-1s-.45-1-1-1H4c-.55 0-1 .45-1 1s.45 1 1 1h1v6H4c-.55 0-1 .45-1 1s.45 1 1 1h1v6H4c-.55 0-1 .45-1 1s.45 1 1 1h16c.55 0 1-.45 1-1s-.45-1-1-1h-1v-6zm-8 3c-1.66 0-3-1.32-3-2.95 0-1.3.52-1.67 3-4.55 2.47 2.86 3 3.24 3 4.55 0 1.63-1.34 2.95-3 2.95"/></svg>

<svg width="24" height="24" viewBox="0 0 24 24" xmlns="http://www.w3.org/2000/svg" fill='currentColor'><path d="M20 13C20.55 13 21 12.55 21 12C21 11.45 20.55 11 20 11H19V5H20C20.55 5 21 4.55 21 4C21 3.45 20.55 3 20 3H4C3.45 3 3 3.45 3 4C3 4.55 3.45 5 4 5H5V11H4C3.45 11 3 11.45 3 12C3 12.55 3.45 13 4 13H5V19H4C3.45 19 3 19.45 3 20C3 20.55 3.45 21 4 21H20C20.55 21 21 20.55 21 20C21 19.45 20.55 19 20 19H19V13H20ZM12 16C10.34 16 9 14.68 9 13.05C9 11.75 9.52 11.38 12 8.5C14.47 11.36 15 11.74 15 13.05C15 14.68 13.66 16 12 16Z"/></svg>
